X:472
T:The Traveller
N:"Slow" "collected by J.O'Neill"
N:Irish title: an triallaire
B:O'Neill's 472
Z:Transcribed by henrik.norbeck@mailbox.swipnet.se
M:C
L:1/8
K:C
ef|g2 ge f3 a|gagf edcB|~c3 d e2 dc|BGFE TF2 EF|
GABG c2 f2|edcB dcBGE|F2 AGF E2 C2|C6||
G2|.c.d.e.f g3 a|b2 ge f2 ef|g3 f edcB|~c3 d e2 ed|
c3 B GFEF|GABG cBGE|F2 AGF E2 C2|C6||
